img/security.svg

<svg width="80" height="80" viewBox="0 0 80 80" fill="none" xmlns="http://www.w3.org/2000/svg">
<path fill-rule="evenodd" clip-rule="evenodd" d="M47.4637 34.2318L38.0556 43.8272L31.134 36.7678L27.6732 40.2975L38.0556 50.8867L53.9068 34.7206L50.4452 31.1909L47.4637 34.2318Z" stroke="#62E0D9" stroke-width="2.35679"/>
<path fill-rule="evenodd" clip-rule="evenodd" d="M57.6279 14.4999C53.5181 14.4999 49.433 13.6263 45.7185 11.8203C43.9395 10.9635 42.1194 9.87144 40.5463 8.51062C38.9732 9.87144 37.153 10.9635 35.3732 11.8203C31.6595 13.6263 27.5744 14.4999 23.4646 14.4999H15.3191V45.7231C15.3191 51.1916 17.4852 56.4501 21.3389 60.2561C26.9979 65.833 40.5463 73.0823 40.5463 73.0823C40.5463 73.0823 54.0947 65.833 59.7529 60.2561C63.6074 56.4501 65.7734 51.1916 65.7734 45.7231V14.4999H57.6279Z" stroke="#62E0D9" stroke-width="2.35679"/>
<path fill-rule="evenodd" clip-rule="evenodd" d="M59.1846 25.7938V45.9852C59.1846 49.6333 57.721 53.1706 55.1703 55.689C51.6222 59.1868 43.5335 63.9732 40.5471 65.6885C37.5574 63.9715 29.4621 59.1792 25.9181 55.6865C23.369 53.1689 21.908 49.6333 21.908 45.9852V21.482H23.4646C28.6237 21.482 33.7218 20.3296 38.208 18.1489C39.0127 17.7616 39.7984 17.3458 40.5471 16.9107C41.2949 17.345 42.0856 17.7642 42.9034 18.159C47.3765 20.3329 52.468 21.482 57.6279 21.482H59.1846V25.7938Z" stroke="#62E0D9" stroke-width="2.35679"/>
</svg>

<svg width="80" height="80" fill="none" xmlns="http://www.w3.org/2000/svg"><path clip-rule="evenodd" d="M47.464 34.232l-9.408 9.595-6.922-7.06-3.46 3.53 10.382 10.59 15.85-16.166-3.46-3.53-2.982 3.04z" stroke="#62E0D9" stroke-width="2.357"/><path clip-rule="evenodd" d="M57.628 14.5c-4.11 0-8.195-.874-11.91-2.68-1.779-.857-3.599-1.949-5.172-3.31-1.573 1.361-3.393 2.454-5.173 3.31-3.713 1.806-7.799 2.68-11.908 2.68h-8.146v31.223c0 5.469 2.166 10.727 6.02 14.533 5.659 5.577 19.207 12.826 19.207 12.826s13.549-7.249 19.207-12.826c3.854-3.806 6.02-9.064 6.02-14.533V14.5h-8.145z" stroke="#62E0D9" stroke-width="2.357"/><path clip-rule="evenodd" d="M59.185 25.794v20.191c0 3.648-1.464 7.186-4.015 9.704-3.548 3.498-11.637 8.284-14.623 10-2.99-1.717-11.085-6.51-14.629-10.002-2.549-2.518-4.01-6.054-4.01-9.702V21.482h1.557c5.159 0 10.257-1.152 14.743-3.333.805-.387 1.59-.803 2.34-1.238a35.03 35.03 0 002.355 1.248c4.474 2.174 9.565 3.323 14.725 3.323h1.557v4.312z" stroke="#62E0D9" stroke-width="2.357"/></svg>
